X: 1
T: Duke Of Fife's Welcome To Deeside, The
Z: bdh
S: https://thesession.org/tunes/9568#setting9568
R: reel
M: 4/4
L: 1/8
K: Amaj
|: E2A2 A2Bc | B2A2 A2Bc | d2ef e2a2 | ecAc B2AF |
E2A2 A2Bc | B2A2 A2Bc | d2ef ecBc |1 A2AB A2FA :|2 A2AB A2cd ||
e2c/B/A a2ga | f2>a2 e2c/B/A | d2ef e2a2 | ecAc B2cd |
e2c/B/A a2ga | f2>a2 e2c/B/A | d2ef ecBc | A2AB A2cd |
e2c/B/A a2ga | f2>a2 e2c/B/A | d2ef e2a2 | ecAc B2AF |
E2A2 A2Bc | B2A2 A2Bc | d2ef ecBc | A4 A2FA ||
|: EDCE AGAc | BAGB AGAc | dcdf edca | ecAc B2AF |
EDCE AGAc | BAGB AGAc | dcdf ecBc |1 A2AB A2FA :|2 A2AB A2cd ||
|: eccB Aaga | f2>a2 eAc/B/A | dcdf edca | ecAc B2cd |
dccB Aaga | f2>a2 eAc/B/A | dcdf ecBc |1 A2AB A2cd :|2 A2AB A4 ||
